X:46
T:Glengarry's Foxhunter
T:Niall Brochdair
R:Slow Air
S:Simon Fraser Collection
N:No.14
O:Scottish
M:6/8
L:1/8
Q:3/8=70
K:D
A|d>ed d>ef|dAG FED|d>ed afe|dBB B2 (3A/B/c/|d>ed dfa|D>EF/G/ AFD|
F2 E/D/ EFA|dBB B2:|
|:c|d>ed a2b|d>ed dBA|d>ed a2b|aff f2a|f>^ef b2d'|a>ba afd|e>de f2e|dBB
B2||

